X: 18649
T: I'd Rather Have A Piece Than A Kiss
R: jig
M: 6/8
K: Amixolydian
|:f|gfe edB|gfg GAB|gfe edB|dBA A2f|
gfe edB|gfg a2b|gfe efg|dBA A2:|
|:B/c/|d2B d2B|gfg GAB|d2B d2g|ecA ABc|
d2B d2B|gfg a2b|gfe efg|dBA A2:|

